app/images/eye.svg

<svg width="22" height="13" viewBox="0 0 22 13" fill="none" xmlns="http://www.w3.org/2000/svg">
<path d="M18.9754 3.3136C14.5573 -1.10453 7.36913 -1.10453 2.951 3.3136L0 6.26423L3.02421 9.28843C5.23309 11.4973 8.13466 12.6021 11.0366 12.6021C13.9385 12.6021 16.8397 11.4977 19.049 9.28843L22 6.33743L18.9754 3.3136ZM18.5232 8.76297C14.3949 12.8909 7.67794 12.8909 3.54967 8.76297L1.05093 6.26423L3.47646 3.83869C7.60474 -0.28921 14.3217 -0.28921 18.45 3.83869L20.9487 6.33743L18.5232 8.76297Z" fill="#686868"/>
<path d="M10.6169 3.31689C9.1825 3.31689 8.01562 4.48377 8.01562 5.9182C8.01562 6.12333 8.18211 6.28982 8.38724 6.28982C8.59237 6.28982 8.75886 6.12333 8.75886 5.9182C8.75886 4.89366 9.59239 4.06013 10.6169 4.06013C10.8221 4.06013 10.9885 3.89364 10.9885 3.68851C10.9885 3.48338 10.8224 3.31689 10.6169 3.31689Z" fill="#686868"/>
<path d="M10.9892 1.45898C8.32546 1.45898 6.1582 3.62625 6.1582 6.28998C6.1582 8.95372 8.32546 11.121 10.9892 11.121C13.6529 11.121 15.8202 8.95372 15.8202 6.28998C15.8202 3.62625 13.6533 1.45898 10.9892 1.45898ZM10.9892 10.3778C8.73536 10.3778 6.90143 8.54383 6.90143 6.28998C6.90143 4.03614 8.73536 2.20222 10.9892 2.20222C13.243 2.20222 15.077 4.03614 15.077 6.28998C15.077 8.54383 13.2434 10.3778 10.9892 10.3778Z" fill="#686868"/>
</svg>

<svg width="22" height="13" fill="none" xmlns="http://www.w3.org/2000/svg"><path d="M18.975 3.314c-4.418-4.419-11.606-4.419-16.024 0L0 6.264l3.024 3.024a11.296 11.296 0 0 0 8.013 3.314c2.901 0 5.803-1.104 8.012-3.314L22 6.338l-3.025-3.024zm-.452 5.449c-4.128 4.128-10.845 4.128-14.973 0l-2.5-2.499L3.477 3.84C7.605-.29 14.322-.29 18.45 3.839l2.499 2.498-2.426 2.426z" fill="#686868"/><path d="M10.617 3.317a2.604 2.604 0 0 0-2.601 2.601.372.372 0 0 0 .743 0 1.86 1.86 0 0 1 1.858-1.858.372.372 0 0 0 0-.743z" fill="#686868"/><path d="M10.99 1.459A4.837 4.837 0 0 0 6.157 6.29a4.837 4.837 0 0 0 4.831 4.831A4.837 4.837 0 0 0 15.82 6.29a4.836 4.836 0 0 0-4.83-4.831zm0 8.919A4.093 4.093 0 0 1 6.9 6.29a4.093 4.093 0 0 1 4.088-4.088 4.093 4.093 0 0 1 4.088 4.088 4.092 4.092 0 0 1-4.088 4.088z" fill="#686868"/></svg>
